modules/feathericon/icons/backward.svg

<?xml version="1.0" encoding="UTF-8"?>
<svg width="24px" height="24px" viewBox="0 0 24 24" version="1.1" xmlns="http://www.w3.org/2000/svg" xmlns:xlink="http://www.w3.org/1999/xlink">
    <!-- Generator: sketchtool 52.2 (67145) - http://www.bohemiancoding.com/sketch -->
    <title>backward</title>
    <desc>Created with sketchtool.</desc>
    <g id="media-player" stroke="none" stroke-width="1" fill="none" fill-rule="evenodd">
        <g id="backward" fill="#000000">
            <path d="M12,11.99947 C11.9999999,11.8925745 12.0230928,11.7841824 12.0717341,11.684095 C12.1234646,11.577651 12.2002899,11.4899057 12.2934869,11.4308222 L19.1533324,7.08193038 C19.4285884,6.90742807 19.7755846,7.02082217 19.92837,7.33520318 C19.9753487,7.43186966 20,7.54060804 20,7.65116756 L20,16.3489513 C20,16.7085156 19.744791,17 19.4299748,17 C19.3331745,17 19.2379686,16.9718448 19.1533324,16.9181884 L12.2934869,12.5692966 C12.1058623,12.4503494 12.0000001,12.2283402 12,11.99947 L12,16.3489513 C12,16.7085156 11.744791,17 11.4299748,17 C11.3331745,17 11.2379686,16.9718448 11.1533324,16.9181884 L4.2934869,12.5692966 C4.01823084,12.3947943 3.91894872,11.9984761 4.07173409,11.684095 C4.12346458,11.577651 4.20028993,11.4899057 4.2934869,11.4308222 L11.1533324,7.08193038 C11.4285884,6.90742807 11.7755846,7.02082217 11.92837,7.33520318 C11.9753487,7.43186966 12,7.54060804 12,7.65116756 L12,11.9994697 Z" id="Shape"></path>
        </g>
    </g>
</svg>

<svg width="24" height="24" viewBox="0 0 24 24" xmlns="http://www.w3.org/2000/svg"><path d="M12 12c0-.107.023-.216.072-.316a.617.617 0 0 1 .221-.253l6.86-4.35c.276-.174.623-.06.775.254a.725.725 0 0 1 .072.316v8.698c0 .36-.255.651-.57.651a.516.516 0 0 1-.277-.082l-6.86-4.349A.671.671 0 0 1 12 12v4.35c0 .36-.255.651-.57.651a.516.516 0 0 1-.277-.082l-6.86-4.349c-.275-.174-.374-.57-.221-.885a.617.617 0 0 1 .221-.253l6.86-4.35c.276-.174.623-.06.775.254a.725.725 0 0 1 .072.316V12z" fill="#000" fill-rule="evenodd"/></svg>
